X:2701
T:Miss Murray of Lintrose
P:Miss Murray of Lintrose
C:John Bowie of Perth (1784)
R:Reel (8x32)
B:RSCDS 27-1
Z:Anselm Lingnau <anselm@strathspey.org>
M:2/4
L:1/16
K:A
|:e2|"A"c2cB A2E2|"D"F4 "E7"E2d2|"A"c2A2 "E7"B2AG|"A"ABcd e2ed|
     "A"c2cB A2E2|"D"F4 "E7"E2d2|"A"c2A2 "E7"GABG|"A"A4-A2:|
|:A2|"A"A2e2 e2de|"D"f2d2 d2cd|"E7"E2d2 d2cd|"A"e2c2 c2BA|
     "A"A2c2 "D"F2d2|"A"c4 "Bm"B2d2|"E7"c2A2 GABG|"A"A4-A2:|
